src/parts/tops/ShortHairShortCurly.svg

<svg>
  <g
    id="Top"
    strokeWidth="1"
    fillRule="evenodd"
  >
    <defs>
      <rect
        id="ShortHairShortCurly-path2"
        x="0"
        y="0"
        width="264"
        height="280"
      />
      <path
        id="ShortHairShortCurly-path1"
        d="M94.2519269,52.0221149 C94.3749353,51.9677149 94.0696712,51.9468149 93.3361345,51.9595149 C94.2276637,51.9577149 94.5329279,51.9785149 94.2519269,52.0221149 M86.1169775,36.3015924 C86.1148422,36.2819924 86.1337548,36.4526924 86.1169775,36.3015924 M193.765056,70.7656665 C193.500946,67.448734 193.03295,64.1518864 192.246676,60.9110823 C191.622233,58.3353492 190.769007,55.8775343 189.760006,53.4200433 C189.150703,51.9353766 187.727538,49.8961062 187.560324,48.2944933 C187.395466,46.7168527 188.626521,44.969138 188.889285,43.1323368 C189.144311,41.3447761 189.100909,39.4652134 188.734183,37.6938503 C187.901144,33.6710288 185.140271,29.9300447 180.877167,28.8814158 C179.925362,28.6471994 177.913417,28.9358396 177.240862,28.3815597 C176.469729,27.7459682 175.932761,25.5806808 175.234637,24.7121687 C173.244224,22.2362125 170.13984,20.6417265 166.865887,21.1976261 C164.454917,21.606776 165.839391,22.1053363 164.032005,20.6864317 C163.027041,19.8976114 162.276095,18.6931622 161.300066,17.8392279 C159.832826,16.5563826 158.149588,15.4581893 156.408146,14.556958 C151.851325,12.19892 146.654249,10.4848961 141.564162,9.64942693 C132.278934,8.12523827 122.368926,9.45408458 113.368668,11.8688141 C108.890239,13.0703477 104.381531,14.5951842 100.222053,16.6117782 C98.4385542,17.4764029 97.4090304,18.1936301 95.5494951,18.4200717 C92.6207355,18.7767416 90.1404579,18.7589243 87.3661268,20.0009517 C78.8298269,23.8229236 74.9849256,32.6897818 78.3066539,41.1750259 C78.974835,42.8815988 79.8795374,44.3801954 81.1267416,45.7586062 C82.6474761,47.4392631 83.1975648,47.1085093 81.8877817,49.0411999 C79.9289949,51.9311653 78.2777195,55.0129095 76.9332826,58.2128958 C73.4043038,66.6145606 72.8138416,76.0771643 73.043634,85.0373203 C73.1240445,88.1741362 73.2586228,91.3495022 73.753198,94.4561907 C73.966841,95.8009106 74.0267283,98.3293468 75.0353925,99.3271154 C75.5471264,99.8331265 76.2762042,100.115288 77.0035997,99.9137903 C78.7130802,99.4401742 78.1253096,98.1787097 78.1650102,97.0076274 C78.364859,91.1240324 78.0950295,85.9191145 79.4943071,80.1064647 C80.5278683,75.8118486 82.2504702,71.9114806 84.4827873,68.0713675 C87.3213795,63.1871608 90.3857268,58.8977279 94.2895061,54.7155226 C95.2073299,53.7320079 95.4078515,53.3150832 96.6385698,53.243814 C97.5705244,53.1900382 98.9338023,53.8282213 99.8398505,54.0491558 C101.837665,54.5360539 103.83918,55.0174448 105.873331,55.3452831 C109.613261,55.9481556 113.316519,55.9886494 117.090094,55.8704074 C124.516459,55.6381346 131.974787,55.1172217 139.175061,53.2470535 C143.956964,52.00535 148.196516,49.7762443 152.776887,48.1422364 C152.858644,48.1130808 154.006596,47.2951049 154.207791,47.3284719 C154.488723,47.3747968 156.184746,49.1542588 156.471061,49.3784327 C158.696649,51.1238798 161.137899,51.8566566 163.541467,53.2081794 C166.504881,54.8745825 163.634999,52.4899804 165.269452,54.5668292 C165.745859,55.1716454 165.989782,56.2931632 166.371984,56.9783192 C167.587899,59.1610999 169.279548,61.0795367 171.302932,62.6017816 C173.258018,64.0725184 176.196198,64.7829426 177.193087,66.697168 C177.961865,68.1740599 178.220929,70.1812592 178.841334,71.7579279 C180.468722,75.8931602 182.617937,79.7494709 184.767152,83.6443317 C186.498502,86.7830913 188.392354,89.5250111 188.584801,93.1117947 C188.651754,94.3603012 187.463764,101.849397 190.357534,99.5716982 C190.786502,99.2341415 191.711391,95.415733 191.901483,94.7678314 C192.672616,92.135083 192.94682,89.3866841 193.29605,86.6816947 C193.990474,81.3021672 194.218584,76.1837441 193.765056,70.7656665"
      />
      <filter
        id="filter1"
        x="-0.8%"
        y="-2.0%"
        width="101.5%"
        height="108.0%"
        filterUnits="objectBoundingBox"
      >
        <feOffset
          dx="0"
          dy="2"
          in="SourceAlpha"
          result="shadowOffsetOuter1"
        />
        <feColorMatrix
          values="0 0 0 0 0   0 0 0 0 0   0 0 0 0 0  0 0 0 0.16 0"
          type="matrix"
          in="shadowOffsetOuter1"
          result="shadowMatrixOuter1"
        />
        <feMerge>
          <feMergeNode in="shadowMatrixOuter1" />
          <feMergeNode in="SourceGraphic" />
        </feMerge>
      </filter>
    </defs>
    <mask
      id="ShortHairShortCurly-mask2"
      fill="white"
    >
      <use href="#ShortHairShortCurly-path2" />
    </mask>
    <g id="Mask" />
    <g
      id="Top/Short-Hair/Short-Curly"
      mask="url('#ShortHairShortCurly-mask2')"
    >
      <g transform="translate(-1.000000, 0.000000)">
        <mask
          id="ShortHairShortCurly-mask1"
          fill="white"
        >
          <use href="#ShortHairShortCurly-path1" />
        </mask>
        <use
          class="CustomColor"
          stroke="none"
          fill="var(--avataaar-hair-color)"
          fillRule="evenodd"
          href="#ShortHairShortCurly-path1"
        />
      </g>
    </g>
  </g>
</svg>

<svg>
  <g id="Top">
    <defs>
      <path id="ShortHairShortCurly-path2" d="M0 0h264v280H0z"/>
      <path id="ShortHairShortCurly-path1" d="M94.252 52.022c.123-.054-.182-.075-.916-.062.892-.002 1.197.019.916.062m-8.135-15.72c-.002-.02.017.15 0 0m107.648 34.464c-.264-3.317-.732-6.614-1.518-9.855-.625-2.576-1.478-5.033-2.487-7.491-.61-1.485-2.032-3.524-2.2-5.126-.165-1.577 1.067-3.325 1.33-5.162a15.981 15.981 0 0 0-.156-5.438c-.833-4.023-3.594-7.764-7.857-8.813-.952-.234-2.964.055-3.636-.5-.771-.635-1.308-2.8-2.006-3.669-1.99-2.476-5.095-4.07-8.37-3.514-2.41.409-1.026.907-2.833-.512-1.005-.788-1.756-1.993-2.732-2.847-1.467-1.283-3.15-2.38-4.892-3.282-4.557-2.358-9.754-4.072-14.844-4.908-9.285-1.524-19.195-.195-28.195 2.22-4.479 1.201-8.987 2.726-13.147 4.743-1.783.864-2.813 1.582-4.673 1.808-2.928.357-5.409.339-8.183 1.581-8.536 3.822-12.381 12.689-9.06 21.174a14.64 14.64 0 0 0 2.82 4.584c1.521 1.68 2.072 1.35.762 3.282a52.787 52.787 0 0 0-4.955 9.172c-3.529 8.402-4.12 17.864-3.89 26.824.081 3.137.216 6.313.71 9.42.214 1.344.274 3.872 1.282 4.87.512.506 1.241.788 1.969.587 1.71-.474 1.121-1.735 1.161-2.906.2-5.884-.07-11.089 1.33-16.902 1.033-4.294 2.755-8.195 4.988-12.035 2.838-4.884 5.903-9.173 9.807-13.355.917-.984 1.118-1.4 2.349-1.472.932-.054 2.295.584 3.2.805 1.999.487 4 .968 6.034 1.296 3.74.603 7.444.644 11.217.525 7.426-.232 14.885-.753 22.085-2.623 4.782-1.242 9.022-3.47 13.602-5.105.082-.029 1.23-.847 1.43-.814.282.047 1.978 1.826 2.264 2.05 2.226 1.746 4.667 2.479 7.07 3.83 2.964 1.667.094-.718 1.728 1.359.477.605.72 1.726 1.103 2.411a18.08 18.08 0 0 0 4.93 5.624c1.956 1.47 4.894 2.18 5.891 4.095.769 1.477 1.028 3.484 1.648 5.06 1.628 4.136 3.777 7.992 5.926 11.887 1.732 3.14 3.625 5.881 3.818 9.468.067 1.248-1.121 8.737 1.773 6.46.429-.338 1.353-4.156 1.543-4.804.772-2.633 1.046-5.381 1.395-8.086.694-5.38.923-10.498.47-15.916"/>
      <filter id="filter1" width="101.5%" height="108%" x="-.8%" y="-2%" filterUnits="objectBoundingBox">
        <feOffset dy="2" in="SourceAlpha" result="shadowOffsetOuter1"/>
        <feColorMatrix in="shadowOffsetOuter1" result="shadowMatrixOuter1" values="0 0 0 0 0 0 0 0 0 0 0 0 0 0 0 0 0 0 0.16 0"/>
        <feMerge>
          <feMergeNode in="shadowMatrixOuter1"/>
          <feMergeNode in="SourceGraphic"/>
        </feMerge>
      </filter>
    </defs>
    <mask id="ShortHairShortCurly-mask2" fill="#fff">
      <use href="#ShortHairShortCurly-path2"/>
    </mask>
    <g id="Top/Short-Hair/Short-Curly" mask="url('#ShortHairShortCurly-mask2')">
      <g transform="translate(-1)">
        <mask id="ShortHairShortCurly-mask1" fill="#fff">
          <use href="#ShortHairShortCurly-path1"/>
        </mask>
        <use fill="var(--avataaar-hair-color)" class="CustomColor" href="#ShortHairShortCurly-path1"/>
      </g>
    </g>
  </g>
</svg>
